icons/.local/share/icons/Tela/symbolic/actions/zoom-in-symbolic.svg

<svg xmlns="http://www.w3.org/2000/svg" width="16" height="16" version="1.1">
 <path style="fill:#555555" d="M 3,2 C 2.45,2 2,2.446 2,3 V 13 C 2,13.554 2.45,14 3,14 H 13 C 13.55,14 14,13.554 14,13 V 3 C 14,2.446 13.55,2 13,2 Z M 7,5 H 9 V 7 H 11 V 9 H 9 V 11 H 7 V 9 H 5 V 7 H 7 Z"/>
</svg>

<svg width="16" height="16" version="1.1" xmlns="http://www.w3.org/2000/svg">
 <path d="m7 5h2v2h2v2h-2v2h-2v-2h-2v-2h2z" fill="#565656"/>
 <path d="m8 0a8 8 0 0 0-8 8 8 8 0 0 0 8 8 8 8 0 0 0 8-8 8 8 0 0 0-8-8zm0 2a6 6 0 0 1 6 6 6 6 0 0 1-6 6 6 6 0 0 1-6-6 6 6 0 0 1 6-6z" fill="#565656" fill-rule="evenodd" stop-color="#000000" stroke-linecap="round" stroke-width="2" style="paint-order:stroke fill markers"/>
</svg>
